assets/features/channel/other/pix.svg

<svg width="80" height="80" viewBox="0 0 80 80" fill="none" xmlns="http://www.w3.org/2000/svg">
<rect width="80" height="80" rx="8" fill="#32BCAD"/>
<path d="M51.2035 50.5996C49.6339 50.5996 48.1577 49.9883 47.0473 48.8797L41.0459 42.8796C40.6244 42.4573 39.8901 42.4588 39.4692 42.8796L33.4459 48.9011C32.9012 49.4483 32.2535 49.882 31.5401 50.1773C30.8267 50.4726 30.0618 50.6236 29.2897 50.6215H28.1069L35.7079 58.2203C38.0816 60.5932 41.93 60.5932 44.3042 58.2203L51.9266 50.5991L51.2035 50.5996ZM29.2897 29.3785C30.8592 29.3785 32.3355 29.9893 33.4459 31.0983L39.4692 37.1209C39.6784 37.3297 39.9619 37.4469 40.2575 37.4469C40.5531 37.4469 40.8366 37.3297 41.0459 37.1209L47.0473 31.1203C47.592 30.5732 48.2397 30.1396 48.9531 29.8443C49.6665 29.5491 50.4314 29.3982 51.2035 29.4004H51.9266L44.3042 21.7797C41.93 19.4068 38.0816 19.4068 35.7074 21.7797L28.1074 29.3785H29.2897Z" fill="white"/>
<path d="M58.2314 35.7032L53.6252 31.0979C53.5238 31.1387 53.4143 31.1642 53.2981 31.1642H51.2037C50.1136 31.1673 49.0687 31.6003 48.296 32.369L42.2951 38.3676C42.0278 38.6352 41.7103 38.8474 41.3607 38.992C41.0112 39.1366 40.6365 39.2108 40.2583 39.2102C39.88 39.2108 39.5054 39.1367 39.1558 38.9922C38.8063 38.8477 38.4888 38.6356 38.2214 38.3681L32.1976 32.3466C31.4249 31.5778 30.38 31.1448 29.2899 31.1417H26.7144C26.6049 31.1417 26.5019 31.1163 26.4051 31.0796L21.7806 35.7032C19.4065 38.0762 19.4065 41.9235 21.7806 44.2975L26.4051 48.9201C26.5019 48.8834 26.6049 48.8579 26.7144 48.8579H29.2899C30.38 48.8549 31.4248 48.4222 32.1976 47.6536L38.2209 41.6321C39.3094 40.5444 41.2071 40.5439 42.2951 41.6321L48.296 47.6312C49.0687 48.3999 50.1136 48.8329 51.2037 48.836H53.2981C53.4143 48.836 53.5238 48.8615 53.6252 48.9023L58.2319 44.2969C60.6056 41.924 60.6056 38.0767 58.2319 35.7027" fill="white"/>
</svg>

<svg xmlns="http://www.w3.org/2000/svg" width="80" height="80" fill="none" viewBox="0 0 80 80"><rect width="80" height="80" fill="#32bcad" rx="8"/><path fill="#fff" d="M51.204 50.6a5.85 5.85 0 0 1-4.157-1.72l-6.001-6a1.14 1.14 0 0 0-1.577 0l-6.023 6.02a5.84 5.84 0 0 1-4.156 1.72h-1.183l7.6 7.6a6.08 6.08 0 0 0 8.597 0l7.623-7.622zM29.29 29.378c1.57 0 3.046.611 4.156 1.72l6.023 6.023a1.116 1.116 0 0 0 1.577 0l6.001-6a5.84 5.84 0 0 1 4.157-1.72h.723l-7.623-7.621a6.08 6.08 0 0 0-8.597 0l-7.6 7.598z"/><path fill="#fff" d="m58.231 35.703-4.606-4.605a.9.9 0 0 1-.327.066h-2.094a4.14 4.14 0 0 0-2.908 1.205l-6 5.999a2.87 2.87 0 0 1-2.038.842 2.87 2.87 0 0 1-2.037-.842l-6.023-6.021a4.14 4.14 0 0 0-2.908-1.205h-2.576a.9.9 0 0 1-.309-.062l-4.624 4.623a6.076 6.076 0 0 0 0 8.594l4.624 4.623a.9.9 0 0 1 .31-.062h2.575a4.14 4.14 0 0 0 2.908-1.204l6.023-6.022c1.088-1.088 2.986-1.088 4.074 0l6.001 6a4.14 4.14 0 0 0 2.908 1.204h2.094c.116 0 .226.026.327.066l4.607-4.605a6.076 6.076 0 0 0 0-8.594"/></svg>
